icons/Snow Weather--1504940.svg

<svg enable-background="new 0 0 16 16" viewBox="0 0 16 16" xmlns="http://www.w3.org/2000/svg"><path d="m13 11h-3.5c-.276 0-.5-.224-.5-.5s.224-.5.5-.5h3.5c1.103 0 2-.897 2-2s-.897-2-2-2c-.147 0-.297.017-.428.042-.137.024-.28-.008-.392-.091-.112-.084-.184-.211-.197-.35-.208-2.053-1.92-3.601-3.983-3.601-1.703 0-3.221 1.079-3.777 2.684-.085.245-.341.386-.594.321-.023-.005-.089-.005-.129-.005-1.378 0-2.5 1.122-2.5 2.5 0 1.063.668 2.007 1.662 2.348.261.089.4.373.311.635-.089.261-.374.401-.635.311-1.399-.48-2.338-1.803-2.338-3.294 0-1.902 1.525-3.454 3.416-3.499.787-1.81 2.583-3.001 4.584-3.001 2.409 0 4.436 1.688 4.902 4.001 1.748-.036 3.098 1.312 3.098 2.999 0 1.654-1.346 3-3 3z"/><path d="m6 13.5c-.276 0-.5-.224-.5-.5v-5c0-.276.224-.5.5-.5s.5.224.5.5v5c0 .276-.224.5-.5.5z"/><path d="m8.165 12.25c-.085 0-.171-.021-.25-.067l-4.33-2.5c-.239-.138-.321-.444-.183-.683s.444-.322.683-.183l4.33 2.5c.239.138.321.444.183.683-.092.16-.261.25-.433.25z"/><path d="m3.835 12.25c-.173 0-.341-.09-.434-.25-.138-.239-.056-.545.183-.683l4.33-2.5c.237-.138.546-.056.684.183.139.239.057.545-.183.683l-4.33 2.5c-.079.046-.165.067-.25.067z"/><path d="m11.5 16c-.276 0-.5-.224-.5-.5v-3c0-.276.224-.5.5-.5s.5.224.5.5v3c0 .276-.224.5-.5.5z"/><path d="m12.799 15.25c-.085 0-.171-.021-.25-.067l-2.598-1.5c-.239-.138-.321-.444-.182-.683.138-.239.444-.32.683-.183l2.598 1.5c.239.138.321.443.183.683-.093.16-.262.25-.434.25z"/><path d="m10.201 15.25c-.172 0-.341-.09-.433-.25-.139-.239-.057-.545.183-.683l2.598-1.5c.239-.139.545-.058.683.183.139.239.057.545-.183.683l-2.598 1.5c-.079.046-.165.067-.25.067z"/></svg>

<?xml version="1.0" encoding="utf-8"?>
<!DOCTYPE svg PUBLIC "-//W3C//DTD SVG 1.0//EN" "http://www.w3.org/TR/2001/REC-SVG-20010904/DTD/svg10.dtd">
<svg    fill="#000000" xmlns="http://www.w3.org/2000/svg" xmlns:xlink="http://www.w3.org/1999/xlink" version="1.1" x="0px" y="0px" viewBox="0 0 16 16" style="enable-background:new 0 0 16 16;" xml:space="preserve"><g><path d="M13,11H9.5C9.224,11,9,10.776,9,10.5S9.224,10,9.5,10H13c1.103,0,2-0.897,2-2c0-1.103-0.897-2-2-2   c-0.147,0-0.297,0.017-0.428,0.042c-0.137,0.024-0.28-0.008-0.392-0.091c-0.112-0.084-0.184-0.211-0.197-0.35   C11.775,3.548,10.063,2,8,2C6.297,2,4.779,3.079,4.223,4.684C4.138,4.929,3.882,5.07,3.629,5.005C3.606,5,3.54,5,3.5,5   C2.122,5,1,6.122,1,7.5c0,1.063,0.668,2.007,1.662,2.348c0.261,0.089,0.4,0.373,0.311,0.635c-0.089,0.261-0.374,0.401-0.635,0.311   C0.939,10.314,0,8.991,0,7.5c0-1.902,1.525-3.454,3.416-3.499C4.203,2.191,5.999,1,8,1c2.409,0,4.436,1.688,4.902,4.001   C14.65,4.965,16,6.313,16,8C16,9.654,14.654,11,13,11z"></path><g><path d="M6,13.5c-0.276,0-0.5-0.224-0.5-0.5V8c0-0.276,0.224-0.5,0.5-0.5S6.5,7.724,6.5,8v5C6.5,13.276,6.276,13.5,6,13.5z"></path><path d="M8.165,12.25c-0.085,0-0.171-0.021-0.25-0.067l-4.33-2.5C3.346,9.545,3.264,9.239,3.402,9s0.444-0.322,0.683-0.183    l4.33,2.5C8.654,11.455,8.736,11.761,8.598,12C8.506,12.16,8.337,12.25,8.165,12.25z"></path><path d="M3.835,12.25c-0.173,0-0.341-0.09-0.434-0.25c-0.138-0.239-0.056-0.545,0.183-0.683l4.33-2.5    C8.151,8.679,8.46,8.761,8.598,9c0.139,0.239,0.057,0.545-0.183,0.683l-4.33,2.5C4.006,12.229,3.92,12.25,3.835,12.25z"></path></g><path d="M11.5,16c-0.276,0-0.5-0.224-0.5-0.5v-3c0-0.276,0.224-0.5,0.5-0.5s0.5,0.224,0.5,0.5v3C12,15.776,11.776,16,11.5,16z"></path><path d="M12.799,15.25c-0.085,0-0.171-0.021-0.25-0.067l-2.598-1.5C9.712,13.545,9.63,13.239,9.769,13   c0.138-0.239,0.444-0.32,0.683-0.183l2.598,1.5c0.239,0.138,0.321,0.443,0.183,0.683C13.14,15.16,12.971,15.25,12.799,15.25z"></path><path d="M10.201,15.25c-0.172,0-0.341-0.09-0.433-0.25c-0.139-0.239-0.057-0.545,0.183-0.683l2.598-1.5   c0.239-0.139,0.545-0.058,0.683,0.183c0.139,0.239,0.057,0.545-0.183,0.683l-2.598,1.5C10.372,15.229,10.286,15.25,10.201,15.25z"></path></g></svg>
